SVG_Azure_All/Client Application.svg

<?xml version="1.0" encoding="UTF-8" standalone="no"?>
<!-- Generated by Microsoft Visio, SVG Export Client Application.svg Page-1 -->

<svg
   xmlns:dc="http://purl.org/dc/elements/1.1/"
   xmlns:cc="http://creativecommons.org/ns#"
   xmlns:rdf="http://www.w3.org/1999/02/22-rdf-syntax-ns#"
   xmlns:svg="http://www.w3.org/2000/svg"
   xmlns="http://www.w3.org/2000/svg"
   xmlns:sodipodi="http://sodipodi.sourceforge.net/DTD/sodipodi-0.dtd"
   xmlns:inkscape="http://www.inkscape.org/namespaces/inkscape"
   width="0.78735971in"
   height="0.78749859in"
   viewBox="0 0 56.689999 56.699919"
   xml:space="preserve"
   class="st2"
   version="1.1"
   id="svg19"
   sodipodi:docname="Client Application.svg"
   style="font-size:12px;overflow:visible;color-interpolation-filters:sRGB;fill:none;fill-rule:evenodd;stroke-linecap:square;stroke-miterlimit:3"
   inkscape:version="0.92.5 (2060ec1f9f, 2020-04-08)"><metadata
   id="metadata25"><rdf:RDF><cc:Work
       rdf:about=""><dc:format>image/svg+xml</dc:format><dc:type
         rdf:resource="http://purl.org/dc/dcmitype/StillImage" /></cc:Work></rdf:RDF></metadata><defs
   id="defs23" /><sodipodi:namedview
   pagecolor="#ffffff"
   bordercolor="#666666"
   borderopacity="1"
   objecttolerance="10"
   gridtolerance="10"
   guidetolerance="10"
   inkscape:pageopacity="0"
   inkscape:pageshadow="2"
   inkscape:window-width="640"
   inkscape:window-height="480"
   id="namedview21"
   showgrid="false"
   inkscape:zoom="1.7164974"
   inkscape:cx="37.795201"
   inkscape:cy="23.39436"
   inkscape:window-x="0"
   inkscape:window-y="0"
   inkscape:window-maximized="0"
   inkscape:current-layer="svg19" />
	<style
   type="text/css"
   id="style2">
	<![CDATA[
		.st1 {fill:#0072c6;stroke:none;stroke-linecap:butt;stroke-width:12.4085}
		.st2 {fill:none;fill-rule:evenodd;font-size:12px;overflow:visible;stroke-linecap:square;stroke-miterlimit:3}
	]]>
	</style>

	<g
   id="g17"
   transform="translate(-12.4085,-12.404375)">
		<title
   id="title4">Page-1</title>
		<g
   id="group6742-1"
   transform="translate(12.4085,-34.0157)">
			<title
   id="title6">Client Application</title>
			<g
   id="group6743-2">
				<title
   id="title8"> Applications</title>
				<g
   id="shape6744-3">
					<title
   id="title10">Sheet.6744</title>
					<path
   d="M 0,46.42 H 16.41 V 62.83 H 0 Z m 19.41,0 H 37.32 V 62.83 H 19.41 Z m 20.88,0 h 16.4 V 62.83 H 40.29 Z M 0,65.83 H 16.41 V 82.24 H 0 Z m 19.41,0 H 37.32 V 82.24 H 19.41 Z m 20.88,0 h 16.4 V 82.24 H 40.29 Z M 0,85.21 h 16.41 v 17.91 H 0 Z m 19.41,0 h 17.91 v 17.91 H 19.41 Z m 20.88,0 h 16.4 v 17.91 h -16.4 z"
   class="st1"
   id="path12"
   inkscape:connector-curvature="0"
   style="fill:#0072c6;stroke:none;stroke-width:12.40849972;stroke-linecap:butt" />
				</g>
			</g>
		</g>
	</g>
</svg>

<?xml version="1.0" encoding="UTF-8" standalone="no"?>
<!DOCTYPE svg PUBLIC "-//W3C//DTD SVG 1.1//EN" "http://www.w3.org/Graphics/SVG/1.1/DTD/svg11.dtd">
<!-- Generated by Microsoft Visio, SVG Export Client Application.svg Page-1 -->
<svg xmlns="http://www.w3.org/2000/svg" xmlns:xlink="http://www.w3.org/1999/xlink" xmlns:ev="http://www.w3.org/2001/xml-events"
		width="1.13208in" height="1.43218in" viewBox="0 0 81.5099 103.117" xml:space="preserve" color-interpolation-filters="sRGB"
		class="st2">
	<style type="text/css">
	<![CDATA[
		.st1 {fill:#0072c6;stroke:none;stroke-linecap:butt;stroke-width:12.4085}
		.st2 {fill:none;fill-rule:evenodd;font-size:12px;overflow:visible;stroke-linecap:square;stroke-miterlimit:3}
	]]>
	</style>

	<g>
		<title>Page-1</title>
		<g id="group6574-1" transform="translate(12.4085,-34.0157)">
			<title>Client Application</title>
			<g id="group6575-2">
				<title> Applications</title>
				<g id="shape6576-3">
					<title>Sheet.6576</title>
					<path d="M0 46.42 L16.41 46.42 L16.41 62.83 L0 62.83 L0 46.42 ZM19.41 46.42 L37.32 46.42 L37.32 62.83 L19.41
								 62.83 L19.41 46.42 ZM40.29 46.42 L56.69 46.42 L56.69 62.83 L40.29 62.83 L40.29 46.42 ZM0 65.83 L16.41
								 65.83 L16.41 82.24 L0 82.24 L0 65.83 ZM19.41 65.83 L37.32 65.83 L37.32 82.24 L19.41 82.24 L19.41
								 65.83 ZM40.29 65.83 L56.69 65.83 L56.69 82.24 L40.29 82.24 L40.29 65.83 ZM0 85.21 L16.41 85.21 L16.41
								 103.12 L0 103.12 L0 85.21 ZM19.41 85.21 L37.32 85.21 L37.32 103.12 L19.41 103.12 L19.41 85.21 ZM40.29
								 85.21 L56.69 85.21 L56.69 103.12 L40.29 103.12 L40.29 85.21 Z" class="st1"/>
				</g>
			</g>
		</g>
	</g>
</svg>
